tools/download-figma-icons/icons/outlined-medium/sun.svg

<svg width="24" height="24" viewBox="0 0 24 24" fill="none" xmlns="http://www.w3.org/2000/svg">
<path fill-rule="evenodd" clip-rule="evenodd" d="M11.9938 4.87284C11.5798 4.87284 11.2438 4.53759 11.2438 4.12284V0.750089C11.2438 0.335339 11.5798 8.93729e-05 11.9938 8.93729e-05C12.4078 8.93729e-05 12.7438 0.335339 12.7438 0.750089V4.12284C12.7438 4.53759 12.4078 4.87284 11.9938 4.87284ZM11.9938 6.33475C8.86858 6.33475 6.33433 8.86825 6.33433 11.9935C6.33433 15.1195 8.86858 17.653 11.9938 17.653C15.1191 17.653 17.6526 15.1195 17.6526 11.9935C17.6526 8.86825 15.1191 6.33475 11.9938 6.33475ZM11.9938 7.83475C14.2873 7.83475 16.1526 9.7 16.1526 11.9935C16.1526 14.287 14.2873 16.153 11.9938 16.153C9.70033 16.153 7.83433 14.287 7.83433 11.9935C7.83433 9.7 9.70033 7.83475 11.9938 7.83475ZM5.89791 6.95799C6.04416 7.10424 6.23616 7.17774 6.42816 7.17774C6.62016 7.17774 6.81216 7.10424 6.95841 6.95799C7.25166 6.66474 7.25166 6.19074 6.95841 5.89749L4.57341 3.51249C4.28091 3.21999 3.80616 3.21999 3.51291 3.51249C3.22041 3.80574 3.22041 4.28049 3.51291 4.57299L5.89791 6.95799ZM4.12287 12.7434H0.750122C0.336122 12.7434 0.00012207 12.4082 0.00012207 11.9934C0.00012207 11.5787 0.336122 11.2434 0.750122 11.2434H4.12287C4.53687 11.2434 4.87287 11.5787 4.87287 11.9934C4.87287 12.4082 4.53687 12.7434 4.12287 12.7434ZM3.51312 20.4741C3.65937 20.6204 3.85137 20.6939 4.04337 20.6939C4.23537 20.6939 4.42737 20.6204 4.57362 20.4741L6.95862 18.0891C7.25112 17.7966 7.25112 17.3219 6.95862 17.0286C6.66537 16.7361 6.19062 16.7361 5.89812 17.0286L3.51312 19.4136C3.21987 19.7069 3.21987 20.1809 3.51312 20.4741ZM11.9938 23.9868C11.5798 23.9868 11.2438 23.6516 11.2438 23.2368V19.8648C11.2438 19.4501 11.5798 19.1148 11.9938 19.1148C12.4078 19.1148 12.7438 19.4501 12.7438 19.8648V23.2368C12.7438 23.6516 12.4078 23.9868 11.9938 23.9868ZM19.4137 20.4741C19.5599 20.6204 19.7519 20.6939 19.9439 20.6939C20.1359 20.6939 20.3279 20.6204 20.4742 20.4741C20.7674 20.1809 20.7674 19.7069 20.4742 19.4136L18.0899 17.0286C17.7967 16.7361 17.3219 16.7361 17.0294 17.0286C16.7362 17.3219 16.7362 17.7966 17.0294 18.0891L19.4137 20.4741ZM23.2372 12.7434H19.8645C19.4505 12.7434 19.1145 12.4082 19.1145 11.9934C19.1145 11.5787 19.4505 11.2434 19.8645 11.2434H23.2372C23.6512 11.2434 23.9872 11.5787 23.9872 11.9934C23.9872 12.4082 23.6512 12.7434 23.2372 12.7434ZM17.0293 6.95799C17.1755 7.10424 17.3675 7.17774 17.5595 7.17774C17.7515 7.17774 17.9435 7.10424 18.0898 6.95799L20.474 4.57299C20.7673 4.28049 20.7673 3.80574 20.474 3.51249C20.1815 3.21999 19.7068 3.21999 19.4135 3.51249L17.0293 5.89749C16.736 6.19074 16.736 6.66474 17.0293 6.95799Z" fill="black"/>
</svg>

<svg width="24" height="24" viewBox="0 0 24 24" fill="none" xmlns="http://www.w3.org/2000/svg"><path fill-rule="evenodd" clip-rule="evenodd" d="M11.994 4.873a.75.75 0 0 1-.75-.75V.75a.75.75 0 1 1 1.5 0v3.373a.75.75 0 0 1-.75.75Zm0 1.462a5.66 5.66 0 1 0 0 11.318 5.66 5.66 0 0 0 0-11.318Zm0 1.5a4.163 4.163 0 0 1 4.159 4.158 4.164 4.164 0 0 1-4.16 4.16 4.164 4.164 0 0 1-4.159-4.16 4.164 4.164 0 0 1 4.16-4.158Zm-6.096-.877a.748.748 0 0 0 1.06 0 .75.75 0 0 0 0-1.06L4.573 3.511a.75.75 0 0 0-1.06 1.061l2.385 2.385Zm-1.775 5.785H.75a.75.75 0 1 1 0-1.5h3.373a.75.75 0 1 1 0 1.5Zm-.61 7.731a.748.748 0 0 0 1.06 0L6.96 18.09a.75.75 0 0 0-1.06-1.06l-2.386 2.385a.75.75 0 0 0 0 1.06Zm8.48 3.513a.75.75 0 0 1-.75-.75v-3.372a.75.75 0 1 1 1.5 0v3.372a.75.75 0 0 1-.75.75Zm7.42-3.513a.748.748 0 0 0 1.061 0 .75.75 0 0 0 0-1.06l-2.384-2.385a.75.75 0 0 0-1.06 1.06l2.384 2.385Zm3.824-7.73h-3.372a.75.75 0 1 1 0-1.5h3.372a.75.75 0 1 1 0 1.5ZM17.03 6.957a.748.748 0 0 0 1.06 0l2.385-2.385a.75.75 0 1 0-1.06-1.06L17.03 5.896a.75.75 0 0 0 0 1.061Z" fill="currentColor"/></svg>
